assets/emoji/1f509.svg

<svg xmlns="http://www.w3.org/2000/svg" viewBox="0 0 128 128" style="enable-background:new 0 0 128 128" xml:space="preserve"><path style="fill:none;stroke:#b0bec5;stroke-width:5;stroke-linecap:round;stroke-miterlimit:10" d="M92.47 59.64c2.11-6.45.76-13.82-4.17-19.14-4.94-5.32-12.19-7.22-18.78-5.59"/><path style="fill:#8cafbf" d="M93.43 98.52s-23.66-6.21-41.21 10.42c-7.55 7.16-12.89 12.47-14.18 13.76-4.03 4.03-14.4 2.96-24.47-7.11s-11.63-22.1-7.6-26.12c.6-.6 7.34-6.59 14.82-14.5 7.99-8.46 6.55-20.27 7.06-27.56.61-8.76 2.22-12.23 2.22-12.23l63.36 63.34z"/><ellipse transform="rotate(-45.001 61.758 66.837)" style="fill:#54646d" cx="61.76" cy="66.84" rx="17.92" ry="44.8"/><path style="fill:#2c3640" d="M80.73 63.64s-17.36 13.61-8.17 32.67L40.37 69.69l-12.4-26.81 2.11-7.71 10.15-2.5 15.66 7.83 18.54 13.67 6.3 9.47z"/><path style="fill:#8cafbf" d="m43.92 70.01 8.7-5.97 12.1 12.1-5.22 9.28c-9.42-7.4-15.58-15.41-15.58-15.41z"/><ellipse transform="rotate(-45.001 58.669 70.09)" style="fill:#b2dfec" cx="58.67" cy="70.09" rx="4.06" ry="8.56"/><path style="fill:#b2dfec" d="M23.59 79.02c3.34-4.36 3.6-6.55 4.73-11.93 3.19 6.97 8.41 13.99 14.48 18.67-2.69.92-3.01-.96-5.51.4-2.08 1.13-3.99 2.54-5.85 4.01-4.22 3.31 1.9-2.03-1.8 1.75-.6.62-6.05 6.37-6.05 6.37s-3.31-.57-4.27-2.13c-.58-.95-2.13-8.11-2.13-8.11s5.41-7.74 6.4-9.03z"/><path style="fill:#8cafbf" d="M23.57 122.75c-.04-.01-.09-.01-.15-.03-.01 0-.02 0-.03-.01-.01 0-.03-.01-.05-.01.13.06.26.12.38.18l-.1-.13c-.02.01-.03 0-.05 0zM53.6 107.7c-.45.39-.91.79-1.38 1.24.46-.43.92-.84 1.38-1.24z"/><path style="fill:#738a97" d="M20.46 122.22c-.07-.01-.13-.02-.18-.03l.18.03zm.81.14c-.28-.05-.56-.09-.81-.14.23.04.5.09.81.14zm-1.22-.21c-.12-.02-.23-.04-.31-.05.09.02.19.03.31.05zm.23.04c-.08-.01-.16-.03-.23-.04.07.02.14.03.23.04zm2.32.4c-.13-.02-.25-.04-.37-.06.13.01.25.04.37.06zm.57.09c-.16-.03-.35-.06-.57-.1.18.04.37.07.57.1zm-1.25-.21c-.24-.04-.46-.08-.65-.11.22.04.44.07.65.11zm.31.05c-.1-.02-.2-.03-.31-.05.1.02.21.04.31.05zm-2.63-.44c-.04-.01-.06-.01-.08-.01.02 0 .05 0 .08.01zm35.31-15.43c-.43.33-.86.67-1.3 1.05.42-.37.86-.7 1.3-1.05zm-31.74 16.03zm-3.43-.58c-.06-.01-.1-.02-.14-.02.04.01.09.01.14.02zm-.21-.03c-.02-.01-.02-.01 0 0zm4.04.68c.02 0 .03.01.05.01 0 0-.02-.01-.05-.01zm-.23-.04c.02 0 .03.01.05.01-.02 0-.04-.01-.05-.01zm.04.01c.01 0 .02 0 .03.01-.01-.01-.02-.01-.03-.01zm.03 0c.07.01.12.02.15.03-.05-.01-.09-.02-.15-.03z"/><path style="fill:#427687" d="M32.96 124.82zm4.36-1.51-.21.15.21-.15zm-1.04.64zm-.94.38c-.12.04-.25.08-.37.12.13-.04.25-.08.37-.12zm-3.4.54c-.48 0-.98-.01-1.49-.06.51.04 1.01.06 1.49.06zm2.25-.23zm18.17-15.82c-.05.04-.09.08-.14.12.05-.04.1-.08.14-.12zm-28.74 13.94c9.26 1.56 12.14-1.92 12.14-1.92 3.35-3.82 9.99-10.46 12.82-13.26-6.16-2.25-11.84-5.62-16.61-10.38-5.74-5.74-10.31-14.07-12.44-20.91-6.97 7.26-13 12.62-13.57 13.19-4.03 4.03-2.47 16.05 7.6 26.12 5.9 5.9 11.88 8.69 16.65 9.19-1.99-.22-4.19-.83-6.51-1.9l-.08-.13z"/><path style="fill:#54646d" d="M42.79 118.02c-.92.89-1.72 1.68-2.4 2.36.68-.67 1.48-1.46 2.4-2.36zm-4.74 4.68zm-1.92 1.31c-.25.12-.52.22-.79.32.28-.1.54-.2.79-.32zm.98-.55c-.26.18-.54.34-.83.49.29-.15.57-.32.83-.49zm6.63-6.37zm-13.29 7.71c-.07-.01-.14-.01-.22-.02.07.01.15.02.22.02zm3.09-.05c-.19.03-.38.05-.57.07.19-.02.38-.04.57-.07zm-1.24.11h-.36c.12.01.24.01.36 0zm2.67-.41c-.25.07-.51.14-.78.19.27-.06.53-.12.78-.19z"/><path style="fill:#2a4e56" d="M35.77 120.83s-2.89 3.49-12.14 1.92l.1.13c2.32 1.07 4.52 1.68 6.51 1.9.07.01.14.01.22.02.51.05 1.01.07 1.49.06h.36c.23-.01.45-.03.66-.04.19-.02.38-.04.57-.07.22-.03.44-.07.66-.11.27-.06.53-.12.78-.19.13-.04.25-.08.37-.12.27-.09.54-.2.79-.32.05-.02.1-.04.14-.06.3-.15.57-.31.83-.49l.21-.15c.26-.19.51-.39.73-.61.4-.4 1.2-1.2 2.34-2.32.68-.67 1.49-1.46 2.4-2.36.3-.3.62-.61.95-.93 2.3-2.24 5.18-5.02 8.49-8.15.05-.04.09-.08.13-.12-1.28-.36-2.53-.79-3.77-1.24-2.83 2.8-9.47 9.44-12.82 13.25z"/><path style="fill:#738a97" d="M71.63 98.63c-1.02-.47-2.09-1.02-3.15-1.64-6.02-3.54-11.66-7.07-11.66-7.07.54 1.92-.18 2.88 2.59 5.29 1.99 1.72 1.5 4.95-.9 6-4.83 2.12-7.36 3.78-8.59 5.05 0 0-.5.5-1.33 1.32 1.24.45 2.5.88 3.77 1.24.42-.4.84-.76 1.24-1.11.43-.37.87-.71 1.3-1.05 8.87-6.82 14.11-2.41 25.05-5.25 0-.01-3.79-.69-8.32-2.78zm-10.52 3.93c-.68.37-1.36.76-2.04 1.17.67-.41 1.35-.8 2.04-1.17zm-2.08 1.19c-1.39.85-2.77 1.82-4.12 2.89 1.35-1.07 2.73-2.03 4.12-2.89zm9.29-4.21c.4-.12.79-.26 1.19-.37-.39.12-.79.25-1.19.37zm-7.09 2.96c.65-.35 1.31-.67 1.96-.98-.65.3-1.31.63-1.96.98zm2.24-1.11c.61-.28 1.21-.54 1.82-.78-.6.24-1.21.51-1.82.78zm2.34-.97c.53-.2 1.06-.41 1.59-.58-.53.17-1.06.37-1.59.58z"/><path style="fill:#8cafbf" d="M20 83.35C14.28 89.42 7.78 96.09 7.78 96.09s-.38 5.56 4.8 11.81c0 0 7.02-7.02 13.52-13.29-3.67-4.57-5.38-8.93-6.1-11.26z"/><path style="fill:#b3d0e0" d="M95.26 100.34c-8.26 8.26-28.9.09-47.99-19.01C28.17 62.23 20 41.6 28.26 33.34s27.07 1.73 46.17 20.83c19.09 19.1 29.09 37.91 20.83 46.17zM31.9 36.99c-5.13 5.13 1.41 23.11 19.01 40.7s35.57 24.14 40.7 19.01C96.74 91.57 90.2 73.59 72.6 56S37.03 31.86 31.9 36.99z"/><path style="fill:#b2dfec" d="M32.01 53.64c.93 2.03 2.25 7.29 12.16 19.03.34.4 1.74 2.21.85 3.1-.59.59-1.67-.13-2.91-1.37-4.84-4.84-9.37-10.97-12.77-18.1-1.92-4.03 1.38-5.46 2.67-2.66z"/></svg>

<svg xmlns="http://www.w3.org/2000/svg" viewBox="0 0 128 128" style="enable-background:new 0 0 128 128" xml:space="preserve"><path style="fill:none;stroke:#b0bec5;stroke-width:5;stroke-linecap:round;stroke-miterlimit:10" d="M92.47 59.64c2.11-6.45.76-13.82-4.17-19.14-4.94-5.32-12.19-7.22-18.78-5.59"/><path style="fill:#8cafbf" d="M93.43 98.52s-23.66-6.21-41.21 10.42c-7.55 7.16-12.89 12.47-14.18 13.76-4.03 4.03-14.4 2.96-24.47-7.11s-11.63-22.1-7.6-26.12c.6-.6 7.34-6.59 14.82-14.5 7.99-8.46 6.55-20.27 7.06-27.56.61-8.76 2.22-12.23 2.22-12.23l63.36 63.34z"/><ellipse transform="rotate(-45.001 61.758 66.837)" style="fill:#54646d" cx="61.76" cy="66.84" rx="17.92" ry="44.8"/><path style="fill:#2c3640" d="M80.73 63.64s-17.36 13.61-8.17 32.67L40.37 69.69l-12.4-26.81 2.11-7.71 10.15-2.5 15.66 7.83 18.54 13.67 6.3 9.47z"/><path style="fill:#8cafbf" d="m43.92 70.01 8.7-5.97 12.1 12.1-5.22 9.28c-9.42-7.4-15.58-15.41-15.58-15.41z"/><ellipse transform="rotate(-45.001 58.669 70.09)" style="fill:#b2dfec" cx="58.67" cy="70.09" rx="4.06" ry="8.56"/><path style="fill:#b2dfec" d="M23.59 79.02c3.34-4.36 3.6-6.55 4.73-11.93 3.19 6.97 8.41 13.99 14.48 18.67-2.69.92-3.01-.96-5.51.4-2.08 1.13-3.99 2.54-5.85 4.01-4.22 3.31 1.9-2.03-1.8 1.75-.6.62-6.05 6.37-6.05 6.37s-3.31-.57-4.27-2.13c-.58-.95-2.13-8.11-2.13-8.11s5.41-7.74 6.4-9.03z"/><path style="fill:#8cafbf" d="M23.57 122.75c-.04-.01-.09-.01-.15-.03-.01 0-.02 0-.03-.01-.01 0-.03-.01-.05-.01.13.06.26.12.38.18l-.1-.13c-.02.01-.03 0-.05 0zM53.6 107.7c-.45.39-.91.79-1.38 1.24.46-.43.92-.84 1.38-1.24z"/><path style="fill:#738a97" d="M20.46 122.22c-.07-.01-.13-.02-.18-.03l.18.03zM21.27 122.36c-.28-.05-.56-.09-.81-.14.23.04.5.09.81.14zM20.05 122.15c-.12-.02-.23-.04-.31-.05.09.02.19.03.31.05zM20.28 122.19c-.08-.01-.16-.03-.23-.04.07.02.14.03.23.04zM22.6 122.59c-.13-.02-.25-.04-.37-.06.13.01.25.04.37.06zM23.17 122.68c-.16-.03-.35-.06-.57-.1.18.04.37.07.57.1zM21.92 122.47c-.24-.04-.46-.08-.65-.11.22.04.44.07.65.11zM22.23 122.52c-.1-.02-.2-.03-.31-.05.1.02.21.04.31.05zM19.6 122.08c-.04-.01-.06-.01-.08-.01.02 0 .05 0 .08.01zM54.91 106.65c-.43.33-.86.67-1.3 1.05.42-.37.86-.7 1.3-1.05zM23.17 122.68c.06.01.12.02.17.03-.06-.01-.12-.02-.17-.03zM19.74 122.1c-.06-.01-.1-.02-.14-.02.04.01.09.01.14.02zM19.53 122.07c-.02-.01-.02-.01 0 0zM23.57 122.75c.02 0 .03.01.05.01 0 0-.02-.01-.05-.01zM23.34 122.71c.02 0 .03.01.05.01-.02 0-.04-.01-.05-.01zM23.38 122.72c.01 0 .02 0 .03.01-.01-.01-.02-.01-.03-.01zM23.41 122.72c.07.01.12.02.15.03-.05-.01-.09-.02-.15-.03z"/><path style="fill:#427687" d="M32.96 124.82zM37.32 123.31l-.21.15.21-.15zM36.28 123.95zM35.34 124.33c-.12.04-.25.08-.37.12.13-.04.25-.08.37-.12zM31.94 124.87c-.48 0-.98-.01-1.49-.06.51.04 1.01.06 1.49.06zM34.19 124.64zM52.36 108.82c-.05.04-.09.08-.14.12.05-.04.1-.08.14-.12zM23.62 122.76c9.26 1.56 12.14-1.92 12.14-1.92 3.35-3.82 9.99-10.46 12.82-13.26-6.16-2.25-11.84-5.62-16.61-10.38-5.74-5.74-10.31-14.07-12.44-20.91-6.97 7.26-13 12.62-13.57 13.19-4.03 4.03-2.47 16.05 7.6 26.12 5.9 5.9 11.88 8.69 16.65 9.19-1.99-.22-4.19-.83-6.51-1.9l-.08-.13z"/><path style="fill:#54646d" d="M42.79 118.02c-.92.89-1.72 1.68-2.4 2.36.68-.67 1.48-1.46 2.4-2.36zM38.05 122.7zM36.13 124.01c-.25.12-.52.22-.79.32.28-.1.54-.2.79-.32zM37.11 123.46c-.26.18-.54.34-.83.49.29-.15.57-.32.83-.49zM43.74 117.09a798.561 798.561 0 0 0 0 0zM30.45 124.8c-.07-.01-.14-.01-.22-.02.07.01.15.02.22.02zM33.54 124.75c-.19.03-.38.05-.57.07.19-.02.38-.04.57-.07zM32.3 124.86h-.36c.12.01.24.01.36 0zM34.97 124.45c-.25.07-.51.14-.78.19.27-.06.53-.12.78-.19z"/><path style="fill:#2a4e56" d="M35.77 120.83s-2.89 3.49-12.14 1.92l.1.13c2.32 1.07 4.52 1.68 6.51 1.9.07.01.14.01.22.02.51.05 1.01.07 1.49.06h.36c.23-.01.45-.03.66-.04.19-.02.38-.04.57-.07.22-.03.44-.07.66-.11.27-.06.53-.12.78-.19.13-.04.25-.08.37-.12.27-.09.54-.2.79-.32.05-.02.1-.04.14-.06.3-.15.57-.31.83-.49l.21-.15c.26-.19.51-.39.73-.61.4-.4 1.2-1.2 2.34-2.32.68-.67 1.49-1.46 2.4-2.36.3-.3.62-.61.95-.93 2.3-2.24 5.18-5.02 8.49-8.15.05-.04.09-.08.13-.12-1.28-.36-2.53-.79-3.77-1.24-2.83 2.8-9.47 9.44-12.82 13.25z"/><path style="fill:#738a97" d="M71.63 98.63c-1.02-.47-2.09-1.02-3.15-1.64-6.02-3.54-11.66-7.07-11.66-7.07.54 1.92-.18 2.88 2.59 5.29 1.99 1.72 1.5 4.95-.9 6-4.83 2.12-7.36 3.78-8.59 5.05 0 0-.5.5-1.33 1.32 1.24.45 2.5.88 3.77 1.24.42-.4.84-.76 1.24-1.11.43-.37.87-.71 1.3-1.05 8.87-6.82 14.11-2.41 25.05-5.25 0-.01-3.79-.69-8.32-2.78zm-10.52 3.93c-.68.37-1.36.76-2.04 1.17.67-.41 1.35-.8 2.04-1.17zm-2.08 1.19c-1.39.85-2.77 1.82-4.12 2.89 1.35-1.07 2.73-2.03 4.12-2.89zm9.29-4.21c.4-.12.79-.26 1.19-.37-.39.12-.79.25-1.19.37zm-7.09 2.96c.65-.35 1.31-.67 1.96-.98-.65.3-1.31.63-1.96.98zm2.24-1.11c.61-.28 1.21-.54 1.82-.78-.6.24-1.21.51-1.82.78zm2.34-.97c.53-.2 1.06-.41 1.59-.58-.53.17-1.06.37-1.59.58z"/><path style="fill:#8cafbf" d="M20 83.35C14.28 89.42 7.78 96.09 7.78 96.09s-.38 5.56 4.8 11.81c0 0 7.02-7.02 13.52-13.29-3.67-4.57-5.38-8.93-6.1-11.26z"/><path style="fill:#b3d0e0" d="M95.26 100.34c-8.26 8.26-28.9.09-47.99-19.01C28.17 62.23 20 41.6 28.26 33.34s27.07 1.73 46.17 20.83c19.09 19.1 29.09 37.91 20.83 46.17zM31.9 36.99c-5.13 5.13 1.41 23.11 19.01 40.7s35.57 24.14 40.7 19.01C96.74 91.57 90.2 73.59 72.6 56S37.03 31.86 31.9 36.99z"/><path style="fill:#b2dfec" d="M32.01 53.64c.93 2.03 2.25 7.29 12.16 19.03.34.4 1.74 2.21.85 3.1-.59.59-1.67-.13-2.91-1.37-4.84-4.84-9.37-10.97-12.77-18.1-1.92-4.03 1.38-5.46 2.67-2.66z"/></svg>
